tgui/packages/tgfont/icons/s1-boots.svg

<?xml version="1.0" encoding="UTF-8" standalone="no"?>
<svg
   viewBox="0 0 512 512"
   style="height:512px;width:512px"
   version="1.1"
   id="svg3"
   sodipodi:docname="s1-boots.svg"
   inkscape:version="1.3 (0e150ed6c4, 2023-07-21)"
   xmlns:inkscape="http://www.inkscape.org/namespaces/inkscape"
   xmlns:sodipodi="http://sodipodi.sourceforge.net/DTD/sodipodi-0.dtd"
   xmlns="http://www.w3.org/2000/svg"
   xmlns:svg="http://www.w3.org/2000/svg">
  <sodipodi:namedview
     id="namedview3"
     pagecolor="#ffffff"
     bordercolor="#000000"
     borderopacity="0.25"
     inkscape:showpageshadow="2"
     inkscape:pageopacity="0.0"
     inkscape:pagecheckerboard="true"
     inkscape:deskcolor="#d1d1d1"
     inkscape:zoom="3.9394531"
     inkscape:cx="256"
     inkscape:cy="256"
     inkscape:window-width="3840"
     inkscape:window-height="2294"
     inkscape:window-x="-11"
     inkscape:window-y="-11"
     inkscape:window-maximized="1"
     inkscape:current-layer="g3" />
  <defs
     id="defs3" />
  <g
     id="g3">
    <path
       id="path3"
       class="selected"
       d="M 421.312 399.703 C 391.123 404.857 372.161 416.076 357.458 431.211 L 353.183 460.295 C 393.974 482.845 429.667 495.426 482.226 486.133 C 486.492 471.583 483.881 454.226 473.569 438.975 Z M 223.776 46.5838 C 212.23 49.3328 198.828 53.8128 186.736 59.2638 C 178.114 88.1638 164.812 114.627 140.771 133.998 L 157.321 311.105 L 137.388 302.667 L 122.778 134.88 C 106.615 118.874 94.7769 91.8568 84.3879 63.5948 C 80.8429 61.2908 77.3049 59.4448 73.7669 58.1708 C 80.0039 141.097 99.1079 244.903 120.773 332.763 C 123.317 331.604 126.519 330.363 129.497 329.304 C 158.961 336.622 186.492 358.661 211.345 382.371 C 193.546 272.48 257.546 160.48 223.776 46.5838 Z M 291.316 46.5838 C 257.546 160.48 321.546 272.48 303.746 382.37 C 328.599 358.66 356.13 336.62 385.594 329.303 C 388.572 330.363 391.774 331.603 394.318 332.763 C 415.983 244.903 435.088 141.096 441.324 58.1698 C 437.786 59.4438 434.248 61.2898 430.704 63.5938 C 420.314 91.8558 408.476 118.874 392.313 134.879 L 377.703 302.666 L 357.77 311.104 L 374.32 133.997 C 350.28 114.627 336.977 88.1628 328.356 59.2618 C 316.263 53.8118 302.861 49.3318 291.315 46.5818 Z M 130.55 348.31 C 117.24 353.982 102.635 366.665 97.5359 382.976 C 121.261 387.655 150.344 401.383 173.06 423.365 L 177.007 450.232 L 210.474 438.158 L 209.144 409.076 C 189.394 380.375 158.071 356.156 130.55 348.31 Z M 384.542 348.31 C 357.022 356.156 325.699 380.375 305.948 409.076 L 304.618 438.158 L 338.085 450.232 L 342.032 423.365 C 364.748 401.383 393.832 387.655 417.556 382.976 C 412.457 366.665 397.852 353.982 384.542 348.31 Z M 92.2359 400.183 L 39.9789 439.455 C 29.6669 454.706 27.0559 472.064 31.3219 486.613 C 83.8809 495.906 119.574 483.326 160.365 460.775 L 156.09 431.691 C 141.387 416.556 122.425 405.337 92.2359 400.183 Z M 128 22.781 C 116.899 33.722 108.178 50.381 101.924 63.984 C 107.968 84.047 113.007 104.853 129.463 118.91 C 148.325 104.895 156.513 85.158 164.65 62.559 C 154.631 51.155 144.412 34.368 128 22.78 Z M 384 22.781 C 367.588 34.368 357.369 51.155 347.35 62.559 C 355.487 85.158 363.675 104.895 382.537 118.91 C 398.993 104.853 404.032 84.047 410.077 63.984 C 403.821 50.381 395.1 33.722 384 22.781 Z"
       style="fill:#ffffff;fill-opacity:1" />
  </g>
</svg>

<svg xmlns="http://www.w3.org/2000/svg" style="height:512px;width:512px" viewBox="0 0 512 512"><path d="M421.312 399.703c-30.189 5.154-49.151 16.373-63.854 31.508l-4.275 29.084c40.791 22.55 76.484 35.131 129.043 25.838 4.266-14.55 1.655-31.907-8.657-47.158ZM223.776 46.583c-11.546 2.75-24.948 7.23-37.04 12.68-8.622 28.9-21.924 55.364-45.965 74.735l16.55 177.107-19.933-8.438-14.61-167.787c-16.163-16.006-28.001-43.023-38.39-71.285-3.545-2.304-7.083-4.15-10.621-5.424 6.237 82.926 25.34 186.732 47.006 274.592 2.544-1.159 5.746-2.4 8.724-3.459 29.464 7.318 56.995 29.357 81.848 53.067-17.799-109.891 46.201-221.891 12.431-335.787m67.54 0c-33.77 113.897 30.23 225.897 12.43 335.787 24.853-23.71 52.384-45.75 81.848-53.067 2.978 1.06 6.18 2.3 8.724 3.46 21.665-87.86 40.77-191.667 47.006-274.593-3.538 1.274-7.076 3.12-10.62 5.424-10.39 28.262-22.228 55.28-38.391 71.285l-14.61 167.787-19.933 8.438 16.55-177.107c-24.04-19.37-37.343-45.834-45.964-74.735-12.093-5.45-25.495-9.93-37.041-12.68ZM130.55 348.31c-13.31 5.672-27.915 18.355-33.014 34.666 23.725 4.679 52.808 18.407 75.524 40.389l3.947 26.867 33.467-12.074-1.33-29.082c-19.75-28.701-51.073-52.92-78.594-60.766m253.992 0c-27.52 7.846-58.843 32.065-78.594 60.766l-1.33 29.082 33.467 12.074 3.947-26.867c22.716-21.982 51.8-35.71 75.524-40.389-5.099-16.311-19.704-28.994-33.014-34.666M92.236 400.183l-52.257 39.272c-10.312 15.251-12.923 32.609-8.657 47.158 52.559 9.293 88.252-3.287 129.043-25.838l-4.275-29.084c-14.703-15.135-33.665-26.354-63.854-31.508M128 22.781c-11.101 10.941-19.822 27.6-26.076 41.203 6.044 20.063 11.083 40.869 27.539 54.926 18.862-14.015 27.05-33.752 35.187-56.351C154.631 51.155 144.412 34.368 128 22.78Zm256 0c-16.412 11.587-26.631 28.374-36.65 39.778 8.137 22.599 16.325 42.336 35.187 56.351 16.456-14.057 21.495-34.863 27.54-54.926C403.821 50.381 395.1 33.722 384 22.781" class="selected" style="fill:#fff;fill-opacity:1"/></svg>
